X: 3
T: The Spotted Dog
R: jig
M: 6/8
L: 1/8
K: Gmaj
|:DGG GAB|A{B}GE GED|EAA ABd|e/f/ge dBG|
DGG GAB|A{B}GE GBd|e2g d2g|1 GAB A{B}GE:|2 GAB A2{B}G||
|:Bdd dB/c/d|edB dBG|Bdd dBG|DEG A2{B}G|
Bdd dB/c/d|edB d2g|e2g d2g|GAB A2{B}G:|


Tune 3967	Setting 3967

